X: 1453
T: Ancient And Honourable Order Of The Highland Hundred, The
R: jig
M: 6/8
K: Bminor
|:B>ce f2e|f<ae f>ec|A>Bc e2f|e>cf e>cA|
B>ce f2e|f<ae f>ec|A>Bc e>Af|1 e>Ac B2A:|2 e>Ac B2e||
f2{GdG}f f2e|f<ae f>ec|e2{GdG}e e2c|e>fc e>ce|
f2{GdG}f f2e|f<ae f>ec|A>Bc e>Af|e>Ac B2e|
f2{GdG}f f2e|f<ae f>ec|e2{GdG}e e2c|e>fc e>cA|
B>ce f2e|f<ae f>ec|A>Bc e>Af|e>Ac B3||
|:B>Ac B3|B>ce f>ga|c>BA A2B|c2{GdG}c e>cA|
B>Ac B3|B>ce f>ga|A>Bc e>Af|1 e>Ac B3:|2 e>Ac B2e||
f<ae f2e|f>aa f>ec|e>fc e2c|e>ff e>ce|
f<ae f2e|f>aa f>ec|A>Bc e>Af|e>Ac B2e|
f<ae f2e|f>aa f>ec|e>fc e2c|e>ff e>cA|
B>Ac B3|B>ce f>ga|A>Bc e>Af|e>Ac B3||

